X:1
T:Ladykirk House
T:Ladykirk House
T:Nathaniel Gow (1763-1831)
C:Nathaniel Gow (1763-1831)
L:1/8
M:9/8
K:A
V:1 treble 
V:1
 (ABA) Ace C3 | (ABA) Ace{e} dcB | A>BA Ace C3 | dcB Bfe dcB :| e>fe{f} edc{c} a3 | e>fe edc afc | %6
 efe{f} edc a3 | Tf>ga{f} edc fdB | efe{f} edc{c} a3 | e>fe{f} edc afc | efg agf edc | fdB BcB | %12
{e} dcB || %13

